X:5
T: Dragaicuta
O:rumania
C: Trad.
Z: http://swissnet.ai.mit.edu/~jaffer/CFO.html
P: I2(AB)3I
%%MIDI channel 1
%%MIDI program 1 15
%%MIDI gchord f2c3fz2
%%MIDI chordprog 42
%%MIDI chordvol 55
%%MIDI bassprog 43
%%MIDI bassvol 55
M: 3/4
L: 1/4
Q: 1/4=110
K: Bm
P: I
"b"B B2 | B B2 | B B B | B B2|
P: A
|:"Bm"B, B>A|"C#m"^G/2A/2    B>^G|"Dm"A/2^G/2 =F/2E/2D |"E"^G/2A/2  B2 |
"E"B, B>A|"F"  ^G/2A/2 "E"B>^G|"Dm"A/2^G/2 =F/2E/2D |    E/2=F/2 D2 :|
P: B
|:"Dm"A/2^G/2 =F/2E/2 D|E/2=F/2 D/2^C/2 B,|"E"B, E>B,|"F" E/2=F/2 "E"^G2 |
"Dm"A/2^G/2 =F/2E/2 D|E/2=F/2 D/2^C/2 B,|"E"B, E E |"Em"E       "E" E2 :|
